X:426
T: Schnes Himmelreich (5-22), S. 41
N: P0696
O: Lothringen
S: MERKELBACH-PINCK, Angelika: Verklingende Weisen, Bd 5, Kassel 1962]
N: Da Mammut keine Duolen in einem ternren Taktmetrum akzeptiert
N: wird in den Zeilen 2 und 4 (3b_2_) zugunsten von 3b__2_ umgendert
R: geistliches, religiöses Lied]
M: 6/4
L: 1/8
K: D
 | D2D2D2A4A2 | =c2d2cBA4
BA | G3AG2=F2E2DE | =F4E2D4
d2 | A2A2d2ABA2G2 | =F2A2FED3=C
DE | =F2A2AGA3BAG | =F4E2D6

